X:1
T:St. Barbara's
C:James Blackcloak
M:C
L:1/8
K:F major
 F2A2 | B4 B2cB | A2G2 "^*"F4 | G2A2 B2G2 | F4 "^*"F2F2 | E4 E2FE | F2E2 "^*"D4 | C4 C2E2 | F4 "^*"F2A2 |
c2c2 c4 | A2GA F4 | C2D2 E2C2 | F4 AGF2 | G2F2 E2G2 | A4 c2A2 | G2F2 E4 | F4 |]

